wp-content/themes/sayenko-erickson/public/images/careers/bank.svg

<?xml version="1.0" encoding="UTF-8"?>
<svg width="71px" height="64px" viewBox="0 0 71 64" version="1.1" xmlns="http://www.w3.org/2000/svg" xmlns:xlink="http://www.w3.org/1999/xlink">
    <!-- Generator: Sketch 62 (91390) - https://sketch.com -->
    <title>bank</title>
    <desc>Created with Sketch.</desc>
    <g id="Mockups" stroke="none" stroke-width="1" fill="none" fill-rule="evenodd">
        <g id="Career-Index" transform="translate(-257.000000, -906.000000)" fill="#E9731F" fill-rule="nonzero">
            <g id="bank" transform="translate(257.000000, 906.000000)">
                <path d="M67.2326326,54.5135648 C67.0280058,45.7538605 63.9932078,37.1836533 58.423045,29.6696857 C54.1558424,23.9136211 48.5488288,19.142042 42.6257371,16.144694 C42.7460265,15.9658328 42.8162827,15.7504204 42.8162827,15.5186798 C42.8162827,14.8982083 42.3134042,14.3951799 41.6927828,14.3951799 L40.1664707,14.3951799 L46.2645287,1.6473505 C46.4309565,1.29921532 46.4072881,0.889961744 46.2014629,0.563547565 C45.9957875,0.237133385 45.6368668,0.0390977976 45.250982,0.0390977976 L25.1550136,0.0390977976 C24.7691289,0.0390977976 24.4102081,0.237133385 24.2045327,0.563547565 C23.9988573,0.889961744 23.9750391,1.29921532 24.1416167,1.6473505 L30.2395249,14.3951799 L28.7132128,14.3951799 C28.0927412,14.3951799 27.5897129,14.8982083 27.5897129,15.5186798 C27.5897129,15.7504204 27.6599691,15.9658328 27.7802585,16.144694 C21.8571668,19.142042 16.2501532,23.9136211 11.9831005,29.6696857 C6.4129376,37.1836533 3.37813959,45.7538605 3.1735128,54.5135648 C1.32842632,55.0508974 0,56.7460341 0,58.7541029 C0,61.1925472 1.98395108,63.1764983 4.42239532,63.1764983 L65.9837501,63.1764983 C68.4221943,63.1764983 70.4059956,61.1925472 70.4059956,58.7541029 C70.4059956,56.7460341 69.0775693,55.0508974 67.2326326,54.5135648 Z M65.9837501,60.9294984 L4.42239532,60.9294984 C3.2229468,60.9294984 2.24699986,59.9535515 2.24699986,58.7541029 C2.24699986,57.5928534 3.151642,56.6443199 4.31049473,56.5857481 L7.28102855,56.5857481 C7.90150011,56.5857481 8.40452848,56.0827197 8.40452848,55.4622481 C8.40452848,54.8417766 7.90150011,54.3387482 7.28102855,54.3387482 L5.42695406,54.3387482 C5.96278863,36.0934089 19.452877,21.4013255 32.227221,16.6421798 L38.1787746,16.6421798 C50.9532684,21.4011757 64.4433568,36.0934089 64.9790415,54.3387482 L63.1249671,54.3387482 C62.5043457,54.3387482 62.0014671,54.8417766 62.0014671,55.4622481 C62.0014671,56.0827197 62.5043457,56.5857481 63.1249671,56.5857481 L66.0955009,56.5857481 C67.2542038,56.6443199 68.1588459,57.5928534 68.1588459,58.7541029 C68.1588459,59.9535515 67.1830488,60.9294984 65.9837501,60.9294984 Z M31.995031,5.28209747 C32.6155026,5.28209747 33.1185309,4.7790691 33.1185309,4.15859754 L33.1185309,2.28609766 L43.4682123,2.28609766 L37.6757462,14.3951799 L32.7303992,14.3951799 L26.9379331,2.28609766 L30.8715311,2.28609766 L30.8715311,4.15859754 C30.8715311,4.7790691 31.3745594,5.28209747 31.995031,5.28209747 Z" id="Shape"></path>
                <path d="M58.6311171,54.3387482 L49.6431177,54.3387482 C49.0224963,54.3387482 48.5196178,54.8417766 48.5196178,55.4622481 C48.5196178,56.0827197 49.0224963,56.5857481 49.6431177,56.5857481 L58.6311171,56.5857481 C59.2517385,56.5857481 59.7546171,56.0827197 59.7546171,55.4622481 C59.7546171,54.8417766 59.2515887,54.3387482 58.6311171,54.3387482 Z" id="Path"></path>
                <path d="M41.1514056,30.9357953 C41.1514056,31.5562668 41.6542842,32.0592952 42.2749056,32.0592952 C42.8955269,32.0592952 43.3984055,31.5562668 43.3984055,30.9357953 C43.3984055,27.5566071 40.6007409,25.2007026 36.3264977,24.8510694 L36.3264977,23.056915 C36.3264977,22.4364434 35.8234694,21.933415 35.2029978,21.933415 C34.5825262,21.933415 34.0794979,22.4364434 34.0794979,23.056915 L34.0794979,24.8510694 C29.8052547,25.2007026 27.0077399,27.5564573 27.0077399,30.9357953 C27.0077399,35.321939 30.7163383,36.3070237 34.0794979,36.8897457 L34.0794979,44.7702738 C31.6548352,44.5204074 29.2547398,43.4252197 29.2547398,40.9437828 C29.2547398,40.3233113 28.7517114,39.8202829 28.1312398,39.8202829 C27.5107683,39.8202829 27.0077399,40.3233113 27.0077399,40.9437828 C27.0077399,44.322971 29.8052547,46.6788755 34.0794979,47.0285087 L34.0794979,48.8226632 C34.0794979,49.4431347 34.5825262,49.9461631 35.2029978,49.9461631 C35.8234694,49.9461631 36.3264977,49.4431347 36.3264977,48.8226632 L36.3264977,47.0285087 C40.6007409,46.6788755 43.3984055,44.3231208 43.3984055,40.9437828 C43.3984055,36.5559913 39.6902565,35.5700078 36.3264977,34.9869862 L36.3264977,27.1093043 C38.7511604,27.3593205 41.1514056,28.4543584 41.1514056,30.9357953 Z M29.2547398,30.9357953 C29.2547398,28.4543584 31.654985,27.3593205 34.0794979,27.1093043 L34.0794979,34.6024496 C30.8075665,33.9888689 29.2547398,33.2529015 29.2547398,30.9357953 Z M41.1514056,40.9437828 C41.1514056,43.4252197 38.7511604,44.5202576 36.3264977,44.7702738 L36.3264977,37.2742823 C39.5984291,37.8881626 41.1514056,38.6250288 41.1514056,40.9437828 Z" id="Shape"></path>
            </g>
        </g>
    </g>
</svg>

<svg width="71" height="64" viewBox="0 0 71 64" version="1.1" xmlns="http://www.w3.org/2000/svg"><g id="Mockups" stroke="none" stroke-width="1" fill="none" fill-rule="evenodd"><g id="Career-Index" transform="translate(-257 -906)" fill="#E9731F" fill-rule="nonzero"><g id="bank" transform="translate(257 906)"><path d="M67.233 54.514c-.205-8.76-3.24-17.33-8.81-24.844-4.267-5.756-9.874-10.528-15.797-13.525a1.123 1.123 0 0 0-.933-1.75h-1.527l6.099-12.748A1.124 1.124 0 0 0 45.25.04H25.155a1.123 1.123 0 0 0-1.013 1.608l6.098 12.748h-1.527a1.124 1.124 0 0 0-.933 1.75c-5.923 2.997-11.53 7.769-15.797 13.525-5.57 7.514-8.605 16.084-8.81 24.844A4.407 4.407 0 0 0 0 58.754a4.427 4.427 0 0 0 4.422 4.422h61.562a4.427 4.427 0 0 0 4.422-4.422 4.407 4.407 0 0 0-3.173-4.24zm-1.25 6.415H4.424c-1.2 0-2.176-.975-2.176-2.175 0-1.161.905-2.11 2.063-2.168h2.971a1.124 1.124 0 0 0 0-2.247H5.427c.536-18.246 14.026-32.938 26.8-37.697h5.952c12.774 4.76 26.264 19.451 26.8 37.697h-1.854a1.123 1.123 0 1 0 0 2.247h2.97a2.167 2.167 0 0 1 2.064 2.168c0 1.2-.976 2.175-2.175 2.175zM31.996 5.282c.62 0 1.124-.503 1.124-1.123V2.286h10.35l-5.793 12.11H32.73l-5.792-12.11h3.934V4.16c0 .62.503 1.123 1.123 1.123z" id="Shape"/><path d="M58.631 54.339h-8.988a1.123 1.123 0 1 0 0 2.247h8.988a1.123 1.123 0 1 0 0-2.247z" id="Path"/><path d="M41.151 30.936a1.123 1.123 0 1 0 2.247 0c0-3.38-2.797-5.735-7.072-6.085v-1.794a1.124 1.124 0 0 0-2.247 0v1.794c-4.274.35-7.071 2.705-7.071 6.085 0 4.386 3.708 5.371 7.071 5.954v7.88c-2.424-.25-4.824-1.345-4.824-3.826a1.124 1.124 0 0 0-2.247 0c0 3.379 2.797 5.735 7.071 6.085v1.794a1.124 1.124 0 0 0 2.247 0v-1.794c4.275-.35 7.072-2.706 7.072-6.085 0-4.388-3.708-5.374-7.072-5.957v-7.878c2.425.25 4.825 1.345 4.825 3.827zm-11.896 0c0-2.482 2.4-3.577 4.824-3.827v7.493c-3.271-.613-4.824-1.35-4.824-3.666zM41.15 40.944c0 2.481-2.4 3.576-4.825 3.826v-7.496c3.272.614 4.825 1.351 4.825 3.67z" id="Shape"/></g></g></g></svg>
